Papirus/24x24/apps/qprompt.svg

<svg width="24" height="24" version="1.1" xmlns="http://www.w3.org/2000/svg">
 <path d="m14.953571 22.513926h-5.8929895a3.8081799 3.8081799 0 0 1-2.5983924-1.02419l-3.36473-3.140415a3.4542319 3.4542319 0 0 1-1.0973465-2.525235l8e-7 -6.2636184a3.6238432 3.6238432 0 0 1 1.0613983-2.5624429l3.4366257-3.436626a3.6238406 3.6238406 0 0 1 2.5624441-1.0613987l5.8929895 5e-7a3.6238426 3.6238426 0 0 1 2.562442 1.0613989l3.436626 3.4366253a3.6238416 3.6238416 0 0 1 1.0614 2.5624439v6.2636174a3.4542322 3.4542322 0 0 1-1.097347 2.525235l-3.364731 3.140415a3.8081801 3.8081801 0 0 1-2.59839 1.02419z" style="opacity:.2"/>
 <path d="m14.953571 22.014775h-5.8929895a3.8081799 3.8081799 0 0 1-2.5983924-1.02419l-3.36473-3.140415a3.4542319 3.4542319 0 0 1-1.0973465-2.525234l8e-7 -6.2636184a3.6238432 3.6238432 0 0 1 1.0613983-2.5624432l3.4366257-3.436626a3.6238406 3.6238406 0 0 1 2.5624441-1.0613987l5.8929895 5e-7a3.6238426 3.6238426 0 0 1 2.562442 1.0613989l3.436626 3.4366253a3.6238416 3.6238416 0 0 1 1.0614 2.5624432v6.2636184a3.4542322 3.4542322 0 0 1-1.097347 2.525234l-3.364731 3.140416a3.8081801 3.8081801 0 0 1-2.59839 1.024189z" style="fill:#4f4f4f"/>
 <path d="m2.0566406 8.5a3.6238432 3.6238432 0 0 0-0.0566406 0.5605469v0.7324219l13.519531 8.6523432c0.245696 0.169523 0.565136-0.077931 0.458985-0.355468l-3.753907-8.7441409c-0.216516-0.5043601-0.693313-0.8457031-1.246093-0.8457031h-8.9218754zm14.033203 3c-0.863349 0-1.304552 0.627041-0.988282 1.40625l0.482422 1.1875c0.316273 0.779209 1.265557 1.40625 2.128907 1.40625h4.197265c0.029671 0 0.057278-0.002444 0.085938-0.003906a3.4542322 3.4542322 0 0 0 0.017578-0.171875v-3.025391c-0.442368-0.472217-1.105481-0.798828-1.726563-0.798828h-4.197265z" style="opacity:.1"/>
 <path d="m9.0605469 2a3.6238406 3.6238406 0 0 0-2.5625 1.0625l-3.4375 3.4355469a3.6238432 3.6238432 0 0 0-1.0605469 2.5625v0.5a3.6238432 3.6238432 0 0 1 1.0605469-2.5625l3.4375-3.4375a3.6238406 3.6238406 0 0 1 2.5625-1.0605469h5.8925781a3.6238426 3.6238426 0 0 1 2.5625 1.0605469l3.4375 3.4375a3.6238416 3.6238416 0 0 1 1.060547 2.5625v-0.5a3.6238416 3.6238416 0 0 0-1.060547-2.5625l-3.4375-3.4355469a3.6238426 3.6238426 0 0 0-2.5625-1.0625h-5.8925781z" style="fill:#ffffff;opacity:.1"/>
 <path d="M 15.979029,17.58947 12.225331,8.8455365 C 12.008813,8.3411754 11.532228,8 10.979446,8 H 1.4237981 C 1.00801,8.0033658 0.84233971,8.5344972 1.183656,8.770001 l 14.336788,9.174419 c 0.245696,0.169523 0.564736,-0.07741 0.458585,-0.35495 z" style="fill:#17c7e1"/>
 <path d="m16.089929 11h4.196597c0.863348 0 1.81301 0.627308 2.129281 1.406519l0.481771 1.186961c0.316274 0.779211-0.124158 1.40652-0.987505 1.40652h-4.196599c-0.86335 0-1.81301-0.627309-2.129283-1.40652l-0.48177-1.186961c-0.316272-0.779211 0.124157-1.406519 0.987508-1.406519z" style="fill:#2ec27e;stop-color:#000000"/>
 <path d="m1.4238281 8c-0.365845 0.0029615-0.53819512 0.4146641-0.3417969 0.6738281 0.0727445-0.1008432 0.1908674-0.1726063 0.3417969-0.1738281h9.5546879c0.55278 0 1.029577 0.341343 1.246093 0.8457031l3.677735 8.5683589c0.082304-0.0773 0.124891-0.196838 0.076172-0.324218l-3.753907-8.7441409c-0.216516-0.5043601-0.693313-0.8457031-1.246093-0.8457031h-9.5546879zm14.666016 3c-0.77748 0-1.210704 0.509468-1.058594 1.179688 0.107093-0.40755 0.490623-0.679688 1.058594-0.679688h4.197265c0.863348 0 1.812636 0.627041 2.128907 1.40625l0.482422 1.1875c0.031456 0.077501 0.053512 0.15254 0.070312 0.226562 0.055695-0.21195 0.037894-0.45997-0.070312-0.726562l-0.482422-1.1875c-0.316271-0.779209-1.265559-1.40625-2.128907-1.40625h-4.197265z" style="fill:#ffffff;opacity:.2"/>
</svg>

<svg xmlns="http://www.w3.org/2000/svg" width="24" height="24" version="1.1">
 <path style="opacity:0.2" d="M 14.954,22.514 H 9.0606 A 3.8082,3.8082 0 0 1 6.4622,21.49 L 3.0975,18.349 A 3.4542,3.4542 0 0 1 2.0001,15.824 V 9.5605 A 3.6238,3.6238 0 0 1 3.0615,6.998 L 6.4981,3.5614 A 3.6238,3.6238 0 0 1 9.0606,2.5 H 14.954 A 3.6238,3.6238 0 0 1 17.516,3.5614 L 20.953,6.998 A 3.6238,3.6238 0 0 1 22.014,9.5605 V 15.824 A 3.4542,3.4542 0 0 1 20.917,18.349 L 17.552,21.49 A 3.8082,3.8082 0 0 1 14.954,22.514 Z"/>
 <path style="fill:#4f4f4f" d="M 14.954,22.015 H 9.0606 A 3.8082,3.8082 0 0 1 6.4622,20.991 L 3.0975,17.85 A 3.4542,3.4542 0 0 1 2.0001,15.325 V 9.0613 A 3.6238,3.6238 0 0 1 3.0615,6.4989 L 6.4981,3.0622 A 3.6238,3.6238 0 0 1 9.0606,2.0008 L 14.954,2.0009 A 3.6238,3.6238 0 0 1 17.516,3.0622 L 20.953,6.4989 A 3.6238,3.6238 0 0 1 22.014,9.0613 V 15.325 A 3.4542,3.4542 0 0 1 20.917,17.85 L 17.552,20.991 A 3.8082,3.8082 0 0 1 14.954,22.015 Z"/>
 <path style="opacity:0.1" d="M 2.0566,8.5 A 3.6238,3.6238 0 0 0 2,9.0605 V 9.793 L 15.52,18.445 C 15.765,18.615 16.085,18.367 15.979,18.09 L 12.225,9.3457 C 12.008,8.8413 11.531,8.5 10.979,8.5 Z M 16.09,11.5 C 15.226,11.5 14.785,12.127 15.102,12.906 L 15.584,14.094 C 15.9,14.873 16.85,15.5 17.713,15.5 H 21.91 C 21.94,15.5 21.967,15.498 21.996,15.496 A 3.4542,3.4542 0 0 0 22.014,15.324 V 12.299 C 21.571,11.827 20.908,11.5 20.287,11.5 Z"/>
 <path style="opacity:0.1;fill:#ffffff" d="M 9.0605,2 A 3.6238,3.6238 0 0 0 6.498,3.0625 L 3.0605,6.498 A 3.6238,3.6238 0 0 0 2,9.0605 V 9.5605 A 3.6238,3.6238 0 0 1 3.0605,6.998 L 6.498,3.5605 A 3.6238,3.6238 0 0 1 9.0605,2.5 H 14.953 A 3.6238,3.6238 0 0 1 17.516,3.5605 L 20.953,6.998 A 3.6238,3.6238 0 0 1 22.014,9.5605 V 9.0605 A 3.6238,3.6238 0 0 0 20.953,6.498 L 17.516,3.0625 A 3.6238,3.6238 0 0 0 14.953,2 Z"/>
 <path style="fill:#17c7e1" d="M 15.979,17.589 12.225,8.8455 C 12.009,8.3412 11.532,8 10.979,8 H 1.4238 C 1.008,8.0034 0.84235,8.5345 1.1837,8.77 L 15.52,17.944 C 15.766,18.114 16.085,17.867 15.979,17.589 Z"/>
 <path style="fill:#2ec27e" d="M 16.09,11 H 20.287 C 21.15,11 22.1,11.627 22.416,12.407 L 22.898,13.593 C 23.214,14.373 22.773,15 21.91,15 H 17.713 C 16.85,15 15.9,14.373 15.584,13.593 L 15.102,12.407 C 14.786,11.627 15.227,11 16.09,11 Z"/>
 <path style="opacity:0.2;fill:#ffffff" d="M 1.4238,8 C 1.058,8.003 0.88564,8.4147 1.082,8.6738 1.1548,8.573 1.2729,8.5012 1.4238,8.5 H 10.979 C 11.531,8.5 12.008,8.8413 12.225,9.3457 L 15.902,17.914 C 15.985,17.837 16.027,17.717 15.979,17.59 L 12.225,8.8457 C 12.008,8.3413 11.531,8 10.979,8 Z M 16.09,11 C 15.312,11 14.879,11.509 15.031,12.18 15.138,11.772 15.522,11.5 16.09,11.5 H 20.287 C 21.15,11.5 22.1,12.127 22.416,12.906 L 22.898,14.094 C 22.93,14.171 22.952,14.246 22.969,14.32 23.024,14.108 23.007,13.86 22.898,13.594 L 22.416,12.406 C 22.1,11.627 21.15,11 20.287,11 Z"/>
</svg>
